icons/device/mobile.svg

<svg width="32" height="32" viewBox="0 0 32 32" xmlns="http://www.w3.org/2000/svg"><path fill-rule="evenodd" clip-rule="evenodd" d="M8 2C6.89543 2 6 2.89543 6 4V28C6 29.1046 6.89543 30 8 30H24C25.1046 30 26 29.1046 26 28V4C26 2.89543 25.1046 2 24 2H8ZM8 4L24 4V28H8V4ZM13 26H19V24H13V26Z"/></svg>

<svg viewBox="0 0 32 32" xmlns="http://www.w3.org/2000/svg"><path fill-rule="evenodd" d="M8 2a2 2 0 00-2 2v24a2 2 0 002 2h16a2 2 0 002-2V4a2 2 0 00-2-2H8zm0 2h16v24H8V4zm5 22h6v-2h-6v2z"/></svg>
